assets/images/alice.svg

<?xml version="1.0" encoding="UTF-8"?>
<!DOCTYPE svg  PUBLIC '-//W3C//DTD SVG 1.1//EN'  'http://www.w3.org/Graphics/SVG/1.1/DTD/svg11.dtd'>
<svg clip-rule="evenodd" fill-rule="evenodd" stroke-linecap="round" stroke-linejoin="round" stroke-miterlimit="1.5" version="1.1" viewBox="0 0 100 100" xml:space="preserve" xmlns="http://www.w3.org/2000/svg">
    <g transform="matrix(.71541 -.17427 .17427 .71541 8.3213 22.822)">
        <g transform="translate(-29.374 21.481)">
            <path d="m11.399 51.238 0.79-1.309-2.191-0.965 1.401 2.274z" fill-rule="nonzero"/>
        </g>
        <g transform="matrix(-.71896 -.69505 -.69505 .71896 28.464 51.536)">
            <path d="m13.309 48.004h2.317l0.603-2.414-1.799-0.661-1.121 3.075z" fill-rule="nonzero"/>
        </g>
        <g transform="matrix(.78378 .62104 .62104 -.78378 -52.117 100.24)">
            <path d="m18.143 41.515h4.126l-2.603 5.015-2.664-0.938 1.141-4.077z" fill-rule="nonzero"/>
        </g>
        <g transform="matrix(.91988 .39219 .39219 -.91988 -43.174 108.23)">
            <path d="m23.777 37.812h6.317l-2.368 6.656-4.874-0.896 0.925-5.76z" fill-rule="nonzero"/>
        </g>
        <g transform="matrix(.98836 .15214 .15214 -.98836 -34.874 115.94)">
            <path d="m31.977 35.185h6.751l-1.875 7.612-5.415-0.275 0.539-7.337z" fill-rule="nonzero"/>
        </g>
        <g transform="matrix(.07019 .99753 .99753 -.07019 -26.91 41.508)">
            <path d="m40.389 35.348h7.763l-0.264 6.848-7.626-0.937 0.127-5.911z" fill-rule="nonzero"/>
        </g>
        <g transform="matrix(.20372 .97903 .97903 -.20372 -26.052 36.612)">
            <path d="m50.015 36.58h8.438l0.447 7.618-9.582-0.496 0.697-7.122z" fill-rule="nonzero"/>
        </g>
        <g transform="matrix(.91508 -.40327 -.40327 -.91508 -6.1031 144.29)">
            <path d="m60.323 49.018h10.592l-1.218-11.57-10.678 1.752 1.304 9.818z" fill-rule="nonzero"/>
        </g>
        <g transform="matrix(.85543 -.51792 -.51792 -.85543 7.0998 154.67)">
            <path d="m73.43 54.928h9.839l-3.162-13.998-9.151 2.077 2.474 11.921z" fill-rule="nonzero"/>
        </g>
        <g transform="translate(-29.374 -67.896)">
            <path d="m138.51 95.576 1.425 0.542-0.292-2.658-1.133 2.116z" fill-rule="nonzero"/>
        </g>
        <g transform="matrix(.88283 .46969 .46969 -.88283 -55.288 46.17)">
            <path d="m137.02 88.87h3.264l-0.79 2.182-2.466-0.26-8e-3 -1.922z" fill-rule="nonzero"/>
        </g>
        <g transform="matrix(.75324 .65775 .65775 -.75324 -50.886 11.166)">
            <path d="m134.13 82.714h5.638l-1.908 3.669-4.129-0.868 0.399-2.801z" fill-rule="nonzero"/>
        </g>
        <g transform="matrix(-.48316 .87553 .87553 .48316 100.33 -109.78)">
            <path d="m130.45 80.359h6.331l-2.377-6.638-4.886 0.895 0.932 5.743z" fill-rule="nonzero"/>
        </g>
        <g transform="matrix(-.68399 .72949 .72949 .68399 134.27 -90.84)">
            <path d="m125 74.216h6.766l-1.9-7.598-5.428 0.279 0.562 7.319z" fill-rule="nonzero"/>
        </g>
        <g transform="matrix(-.83964 .54315 .54315 .83964 157.2 -63.81)">
            <path d="m117.66 61.154h5.92l0.813 7.635-6.859 0.119 0.126-7.754z" fill-rule="nonzero"/>
        </g>
        <g transform="matrix(-.93465 .35558 .35558 .93465 165.7 -34.325)">
            <path d="m108.46 55.296h7.156l-0.385 9.581-7.548-1.18 0.777-8.401z" fill-rule="nonzero"/>
        </g>
        <g transform="matrix(-.96873 .2481 .2481 .96873 155.33 -12.711)">
            <path d="m95.941 49.815h10.586l-1.159 11.572-10.681-1.75 1.254-9.822z" fill-rule="nonzero"/>
        </g>
        <g transform="matrix(-.99266 .12094 .12094 .99266 140.22 7.8421)">
            <path d="m84.424 44.824h9.829l-3.092 14.011-9.148-2.079 2.411-11.932z" fill-rule="nonzero"/>
        </g>
        <g transform="translate(-29.374 -58.272)">
            <path d="m47.361 97.2c-2.842 6.376-5.226-2.22-5.226-2.22s0.071 0.204-0.899-3.714c-1.416-5.706 7.91 1.924 6.124 5.934m12.649-4.982s-20.694-22.75-28.74 0.045c-6.438 18.223 29.255 10.127 28.74-0.045" fill-rule="nonzero"/>
        </g>
        <g transform="translate(-29.374 -89.608)">
            <path d="m93.37 112.09c-3.866-2.056-1.194-13.833 1.188-8.462 1.638 3.688 1.567 3.483 1.567 3.483s3.393 8.247-2.755 4.978m8.745-12.985c-20.32-12.987-22.678 17.731-22.678 17.731 5.831 8.335 38.921-7.35 22.678-17.731" fill-rule="nonzero"/>
        </g>
        <g transform="matrix(.88156 .47206 .47206 -.88156 -57.709 75.85)">
            <path d="m77.171 76.79c-0.599-0.048-1.084 1.08-1.084 2.512 0 1.433 0.485 2.634 1.084 2.679 0.6 0.047 1.084-1.081 1.085-2.513-2e-3 -1.436-0.486-2.635-1.085-2.678" fill-rule="nonzero"/>
        </g>
        <g transform="matrix(.40378 -.91486 -.91486 -.40378 83.377 140.38)">
            <path d="m70.72 74.565c0.6-0.046 1.087 1.078 1.086 2.509 1e-3 1.43-0.485 2.625-1.086 2.672-0.6 0.046-1.087-1.079-1.087-2.509 0-1.429 0.487-2.626 1.087-2.672" fill-rule="nonzero"/>
        </g>
    </g>
    <g transform="matrix(1.0432 0 0 1.0609 -2.304 -1.8443)">
        <path d="m95.666 8.572c0-2.471-2.04-4.477-4.553-4.477h-81.955c-2.513 0-4.553 2.006-4.553 4.477v80.593c0 2.471 2.04 4.477 4.553 4.477h81.955c2.513 0 4.553-2.006 4.553-4.477v-80.593z" fill="none" stroke="#000" stroke-width=".79px"/>
    </g>
</svg>

<?xml version="1.0" encoding="UTF-8" standalone="no"?>
<!DOCTYPE svg PUBLIC "-//W3C//DTD SVG 1.1//EN" "http://www.w3.org/Graphics/SVG/1.1/DTD/svg11.dtd">
<svg width="100%" height="100%" viewBox="0 0 100 100" version="1.1" xmlns="http://www.w3.org/2000/svg" xmlns:xlink="http://www.w3.org/1999/xlink" xml:space="preserve" xmlns:serif="http://www.serif.com/" style="fill-rule:evenodd;clip-rule:evenodd;stroke-linecap:round;stroke-linejoin:round;stroke-miterlimit:1.5;">
    <g id="alice" transform="matrix(0.715414,-0.174267,0.174267,0.715414,8.32133,22.8223)">
        <g transform="matrix(1,0,0,1,-29.3745,21.4807)">
            <path d="M11.399,51.238L12.189,49.929L9.998,48.964L11.399,51.238Z" style="fill-rule:nonzero;"/>
        </g>
        <g transform="matrix(-0.718961,-0.69505,-0.69505,0.718961,28.4637,51.5358)">
            <path d="M13.309,48.004L15.626,48.004L16.229,45.59L14.43,44.929L13.309,48.004Z" style="fill-rule:nonzero;"/>
        </g>
        <g transform="matrix(0.783776,0.621044,0.621044,-0.783776,-52.1167,100.245)">
            <path d="M18.143,41.515L22.269,41.515L19.666,46.53L17.002,45.592L18.143,41.515Z" style="fill-rule:nonzero;"/>
        </g>
        <g transform="matrix(0.919883,0.392193,0.392193,-0.919883,-43.1737,108.231)">
            <path d="M23.777,37.812L30.094,37.812L27.726,44.468L22.852,43.572L23.777,37.812Z" style="fill-rule:nonzero;"/>
        </g>
        <g transform="matrix(0.988359,0.152137,0.152137,-0.988359,-34.8737,115.937)">
            <path d="M31.977,35.185L38.728,35.185L36.853,42.797L31.438,42.522L31.977,35.185Z" style="fill-rule:nonzero;"/>
        </g>
        <g transform="matrix(0.0701897,0.997534,0.997534,-0.0701897,-26.9096,41.508)">
            <path d="M40.389,35.348L48.152,35.348L47.888,42.196L40.262,41.259L40.389,35.348Z" style="fill-rule:nonzero;"/>
        </g>
        <g transform="matrix(0.203722,0.979029,0.979029,-0.203722,-26.0518,36.6117)">
            <path d="M50.015,36.58L58.453,36.58L58.9,44.198L49.318,43.702L50.015,36.58Z" style="fill-rule:nonzero;"/>
        </g>
        <g transform="matrix(0.915081,-0.403271,-0.403271,-0.915081,-6.10309,144.294)">
            <path d="M60.323,49.018L70.915,49.018L69.697,37.448L59.019,39.2L60.323,49.018Z" style="fill-rule:nonzero;"/>
        </g>
        <g transform="matrix(0.855428,-0.517922,-0.517922,-0.855428,7.09981,154.667)">
            <path d="M73.43,54.928L83.269,54.928L80.107,40.93L70.956,43.007L73.43,54.928Z" style="fill-rule:nonzero;"/>
        </g>
        <g transform="matrix(1,0,0,1,-29.3745,-67.8962)">
            <path d="M138.509,95.576L139.934,96.118L139.642,93.46L138.509,95.576Z" style="fill-rule:nonzero;"/>
        </g>
        <g transform="matrix(0.882832,0.46969,0.46969,-0.882832,-55.2875,46.1705)">
            <path d="M137.016,88.87L140.28,88.87L139.49,91.052L137.024,90.792L137.016,88.87Z" style="fill-rule:nonzero;"/>
        </g>
        <g transform="matrix(0.753238,0.657748,0.657748,-0.753238,-50.8864,11.166)">
            <path d="M134.129,82.714L139.767,82.714L137.859,86.383L133.73,85.515L134.129,82.714Z" style="fill-rule:nonzero;"/>
        </g>
        <g transform="matrix(-0.48316,0.875532,0.875532,0.48316,100.331,-109.785)">
            <path d="M130.452,80.359L136.783,80.359L134.406,73.721L129.52,74.616L130.452,80.359Z" style="fill-rule:nonzero;"/>
        </g>
        <g transform="matrix(-0.683988,0.729493,0.729493,0.683988,134.269,-90.8395)">
            <path d="M124.995,74.216L131.761,74.216L129.861,66.618L124.433,66.897L124.995,74.216Z" style="fill-rule:nonzero;"/>
        </g>
        <g transform="matrix(-0.839638,0.543146,0.543146,0.839638,157.201,-63.8099)">
            <path d="M117.662,61.154L123.582,61.154L124.395,68.789L117.536,68.908L117.662,61.154Z" style="fill-rule:nonzero;"/>
        </g>
        <g transform="matrix(-0.934646,0.355579,0.355579,0.934646,165.699,-34.3253)">
            <path d="M108.463,55.296L115.619,55.296L115.234,64.877L107.686,63.697L108.463,55.296Z" style="fill-rule:nonzero;"/>
        </g>
        <g transform="matrix(-0.968734,0.248101,0.248101,0.968734,155.33,-12.711)">
            <path d="M95.941,49.815L106.527,49.815L105.368,61.387L94.687,59.637L95.941,49.815Z" style="fill-rule:nonzero;"/>
        </g>
        <g transform="matrix(-0.99266,0.120941,0.120941,0.99266,140.222,7.84213)">
            <path d="M84.424,44.824L94.253,44.824L91.161,58.835L82.013,56.756L84.424,44.824Z" style="fill-rule:nonzero;"/>
        </g>
        <g transform="matrix(1,0,0,1,-29.3745,-58.2715)">
            <path d="M47.361,97.2C44.519,103.576 42.135,94.98 42.135,94.98C42.135,94.98 42.206,95.184 41.236,91.266C39.82,85.56 49.146,93.19 47.36,97.2M60.009,92.218C60.009,92.218 39.315,69.468 31.269,92.263C24.831,110.486 60.524,102.39 60.009,92.218" style="fill-rule:nonzero;"/>
        </g>
        <g transform="matrix(1,0,0,1,-29.3745,-89.6085)">
            <path d="M93.37,112.092C89.504,110.036 92.176,98.259 94.558,103.63C96.196,107.318 96.125,107.113 96.125,107.113C96.125,107.113 99.518,115.36 93.37,112.091M102.115,99.106C81.795,86.119 79.437,116.837 79.437,116.837C85.268,125.172 118.358,109.487 102.115,99.106" style="fill-rule:nonzero;"/>
        </g>
        <g transform="matrix(0.881564,0.472065,0.472065,-0.881564,-57.7094,75.8503)">
            <path d="M77.171,76.79C76.572,76.742 76.087,77.87 76.087,79.302C76.087,80.735 76.572,81.936 77.171,81.981C77.771,82.028 78.255,80.9 78.256,79.468C78.254,78.032 77.77,76.833 77.171,76.79" style="fill-rule:nonzero;"/>
        </g>
        <g transform="matrix(0.403777,-0.914857,-0.914857,-0.403777,83.3767,140.379)">
            <path d="M70.72,74.565C71.32,74.519 71.807,75.643 71.806,77.074C71.807,78.504 71.321,79.699 70.72,79.746C70.12,79.792 69.633,78.667 69.633,77.237C69.633,75.808 70.12,74.611 70.72,74.565" style="fill-rule:nonzero;"/>
        </g>
    </g>
    <g transform="matrix(1.04325,0,0,1.06089,-2.30403,-1.84431)">
        <path d="M95.666,8.572C95.666,6.101 93.626,4.095 91.113,4.095L9.158,4.095C6.645,4.095 4.605,6.101 4.605,8.572L4.605,89.165C4.605,91.636 6.645,93.642 9.158,93.642L91.113,93.642C93.626,93.642 95.666,91.636 95.666,89.165L95.666,8.572Z" style="fill:none;stroke:black;stroke-width:0.79px;"/>
    </g>
</svg>
